style-guide/assets/xd-icons-eye-crossed-tiny.svg

<?xml version="1.0" encoding="UTF-8"?>
<svg width="12px" height="12px" viewBox="0 0 12 12" version="1.1" xmlns="http://www.w3.org/2000/svg" xmlns:xlink="http://www.w3.org/1999/xlink">
    <!-- Generator: Sketch 51.3 (57544) - http://www.bohemiancoding.com/sketch -->
    <title>eye off</title>
    <desc>Created with Sketch.</desc>
    <defs></defs>
    <g id="eye-off" stroke="none" stroke-width="1" fill="none" fill-rule="evenodd">
        <path d="M2.12425,6.00025 C2.19525,5.72825 2.30225,5.47225 2.42525,5.22725 C2.45925,5.15825 2.49825,5.09325 2.53625,5.02625 C2.64425,4.83925 2.76525,4.66225 2.90025,4.49525 C2.92825,4.46225 2.95225,4.42725 2.98025,4.39525 L5.26725,6.68125 L5.29025,6.71025 C5.29525,6.71425 5.30125,6.71625 5.30625,6.72025 L7.34725,8.76125 C7.34125,8.76425 7.33525,8.76725 7.32925,8.77025 C7.19225,8.81725 7.04825,8.84925 6.90525,8.88225 C6.83025,8.90025 6.75825,8.92725 6.68225,8.94025 C6.45925,8.97925 6.23125,9.00025 6.00025,9.00025 C4.17725,9.00025 2.57825,7.75025 2.12425,6.00025 M9.87625,6.00025 C9.80525,6.27225 9.69825,6.52725 9.57625,6.77225 C9.54125,6.84225 9.50225,6.90825 9.46325,6.97625 C9.35625,7.16125 9.23625,7.33725 9.10225,7.50225 C9.07425,7.53625 9.04925,7.57225 9.02025,7.60525 L6.71925,5.30525 C6.71525,5.30125 6.71425,5.29525 6.71025,5.29025 C6.70425,5.28425 6.69725,5.28225 6.69125,5.27625 L4.65325,3.23825 C4.65925,3.23625 4.66525,3.23325 4.67025,3.23125 C4.80925,3.18225 4.95425,3.15025 5.09825,3.11725 C5.17225,3.10025 5.24325,3.07325 5.31825,3.06025 C5.54125,3.02125 5.76925,3.00025 6.00025,3.00025 C7.82325,3.00025 9.42225,4.25125 9.87625,6.00025 M11.70725,10.29325 L10.44125,9.02725 C10.45625,9.01225 10.46725,8.99425 10.48025,8.97925 C10.52625,8.92725 10.56525,8.87025 10.60925,8.81625 C10.76325,8.63325 10.90625,8.44125 11.03725,8.23925 C11.09125,8.15525 11.14225,8.06825 11.19225,7.98125 C11.30325,7.78925 11.40225,7.59125 11.49225,7.38625 C11.53025,7.29825 11.57125,7.21425 11.60525,7.12425 C11.71725,6.83025 11.81325,6.52825 11.87925,6.21325 C11.89325,6.14625 11.90025,6.07825 11.90025,6.01125 L11.90025,5.99025 C11.90025,5.92325 11.89325,5.85425 11.87925,5.78825 C11.30525,3.01425 8.83225,1.00025 6.00025,1.00025 C5.68325,1.00025 5.37225,1.03325 5.06625,1.08225 C4.97925,1.09725 4.89425,1.11425 4.80825,1.13225 C4.57225,1.18125 4.34225,1.24225 4.11625,1.31825 C4.04525,1.34225 3.97425,1.36025 3.90425,1.38725 C3.64325,1.48525 3.38725,1.59725 3.14425,1.72925 L1.70725,0.29325 C1.31625,-0.09775 0.68425,-0.09775 0.29325,0.29325 C-0.09775,0.68425 -0.09775,1.31625 0.29325,1.70725 L1.55925,2.97425 C1.54525,2.98825 1.53425,3.00625 1.52025,3.02125 C1.47325,3.07425 1.43325,3.13325 1.38825,3.18725 C1.23625,3.37025 1.09425,3.56025 0.96425,3.76025 C0.90925,3.84525 0.85825,3.93325 0.80725,4.02125 C0.69625,4.21225 0.59825,4.40925 0.50925,4.61225 C0.47025,4.70125 0.42925,4.78725 0.39525,4.87825 C0.28225,5.17125 0.18625,5.47325 0.12125,5.78825 C0.10725,5.85425 0.10025,5.94225 0.10025,6.01125 C0.10025,6.07825 0.10725,6.14625 0.12125,6.21325 C0.69525,8.98725 3.16725,11.00025 6.00025,11.00025 C6.31725,11.00025 6.62825,10.96725 6.93425,10.91825 C7.02125,10.90325 7.10625,10.88625 7.19225,10.86825 C7.42725,10.81925 7.65825,10.75825 7.88325,10.68325 C7.95425,10.65825 8.02625,10.63925 8.09625,10.61225 C8.35725,10.51525 8.61325,10.40325 8.85625,10.27125 L10.29325,11.70725 C10.48825,11.90225 10.74425,12.00025 11.00025,12.00025 C11.25625,12.00025 11.51225,11.90225 11.70725,11.70725 C12.09825,11.31625 12.09825,10.68425 11.70725,10.29325" id="Fill-1" fill="#000000"></path>
    </g>
</svg>

<svg viewBox="0 0 12 12" xmlns="http://www.w3.org/2000/svg">
  <path d="M2.124 6c.071-.272.178-.528.301-.773.034-.069.073-.134.111-.2a4.12 4.12 0 0 1 .364-.532c.028-.033.052-.068.08-.1l2.287 2.286.023.03c.005.003.011.005.016.01l2.041 2.04-.018.01c-.137.046-.28.078-.424.111-.075.018-.147.045-.223.058C6.46 8.98 6.232 9 6 9a4.02 4.02 0 0 1-3.876-3m7.752 0a4 4 0 0 1-.3.772c-.035.07-.074.136-.113.204a4.047 4.047 0 0 1-.36.526c-.029.034-.054.07-.083.103l-2.3-2.3c-.005-.004-.006-.01-.01-.015-.006-.006-.013-.008-.019-.014L4.653 3.238l.017-.007c.14-.049.284-.08.428-.114.074-.017.145-.044.22-.057C5.541 3.021 5.77 3 6 3a4.022 4.022 0 0 1 3.876 3m1.831 4.293l-1.266-1.266c.015-.015.026-.033.04-.048.045-.052.084-.109.128-.163a5.78 5.78 0 0 0 .428-.577 6.02 6.02 0 0 0 .455-.853c.038-.088.08-.172.113-.262a6.03 6.03 0 0 0 .274-.91.99.99 0 0 0 .021-.203v-.02a.983.983 0 0 0-.02-.203A6.028 6.028 0 0 0 6 1a5.896 5.896 0 0 0-1.192.132c-.236.05-.466.11-.692.186-.07.024-.142.042-.212.07-.26.097-.517.21-.76.341L1.707.293A.999.999 0 1 0 .293 1.707L1.56 2.974c-.014.014-.025.032-.039.047-.047.053-.087.112-.132.166a6.098 6.098 0 0 0-.424.573 6.218 6.218 0 0 0-.455.852c-.039.09-.08.175-.114.266a5.765 5.765 0 0 0-.274.91 1.179 1.179 0 0 0-.02.223.99.99 0 0 0 .02.202A6.026 6.026 0 0 0 6.001 11a5.896 5.896 0 0 0 1.191-.132c.235-.049.466-.11.691-.185.071-.025.143-.044.213-.07.261-.098.517-.21.76-.342l1.437 1.436a.997.997 0 0 0 1.414 0 .999.999 0 0 0 0-1.414" fill="#000" fill-rule="evenodd"/>
</svg>
